dist/intermediate-svg/contracts.svg

<?xml version="1.0" encoding="utf-8"?><svg width="24" height="23.04" fill="none" xmlns="http://www.w3.org/2000/svg" viewBox="0 0 25 24"><circle cx="7.75" cy="16.294" r="1.618" stroke="#333"/><circle cx="17.279" cy="16.294" r="1.618" stroke="#333"/><path d="M9.33793 16.2942H15.6909M18.8673 16.2942L21.5144 16.0295V14.8974C21.5144 14.4669 21.239 14.0848 20.8306 13.9487L18.4054 13.1402C18.3605 13.1253 18.3167 13.1071 18.2744 13.086L14.3138 11.1057C14.1749 11.0363 14.0218 11.0001 13.8666 11.0001H9.86735H8.10048C7.87341 11.0001 7.6531 11.0774 7.47578 11.2193L5.24191 13.0064C5.14979 13.08 5.04536 13.1369 4.93344 13.1742L4.19818 13.4193C3.78983 13.5554 3.5144 13.9375 3.5144 14.3679V16.2942H6.16146" stroke="#333"/><path d="M16.5144 8.00012L18.5144 10.0001L22.5144 6.00012" stroke="#0094FF"/></svg>

<?xml version="1.0" encoding="utf-8"?><svg width="24" height="23.04" fill="none" xmlns="http://www.w3.org/2000/svg" viewBox="0 0 25 24"><circle cx="7.75" cy="16.294" r="1.618" stroke="#333"/><circle cx="17.279" cy="16.294" r="1.618" stroke="#333"/><path d="M9.338 16.294h6.353m3.176 0l2.647-.265v-1.132a1 1 0 00-.683-.948l-2.426-.809a.998.998 0 01-.13-.054l-3.961-1.98a1 1 0 00-.447-.106H8.1a1 1 0 00-.624.22l-2.234 1.786c-.092.074-.197.13-.309.168l-.735.245a1 1 0 00-.684.949v1.926h2.647" stroke="#333"/><path d="M16.514 8l2 2 4-4" stroke="#0094FF"/></svg>
